X: 9
T:Battery Park Road
M:4/4
L:1/8
Q:1/4=240
C:Tony Upton, 7/6/98
R:reel
K:G
BGdG B,GDG|AFdF AFdF|B2dG Bgdg|bagf fedc|!
BGdG B,GDG|AFdF AFdF|B2dG Bgdg|[1 afdA d2d2:|[2 afdA d2ef||!
|:g2dg BGdG|DGBG dGBG|a/a/aea cAeA|EAcA eAcA|!
g2dg BGdG|DGBG dGBG|B2dg bgdg|[1 afdA d2ef:|[2 afdF G4||!
